X: 29169
T: New Beginnings
R: jig
M: 6/8
K: Cmajor
K: Ab
FBA FEF|ABc eAe|bae f2a|fec e3|
FBA FEF|ABc eAe|fg/a/f ecA|BcB A2F:|
E2F A2B|cAF FcE|E2F A2B|cea faf|
E2F A2B|c2B cae|baf ecA|BcB AAF:|

